images/social/ok.svg

<svg xmlns="http://www.w3.org/2000/svg" width="24" height="24" fill="none">
	<path fill="#9399A7" fill-rule="evenodd"
		d="M12 22c-4.08 0-6.475-.686-7.894-2.1C2.687 18.484 2 16.1 2 12.033s.687-6.47 2.11-7.903C5.53 2.701 7.923 2 12 2s6.47.701 7.89 2.131C21.314 5.563 22 7.968 22 12.034c0 4.067-.687 6.451-2.106 7.865C18.475 21.314 16.081 22 12 22Zm0 1C3.733 23 1 20.275 1 12.034S3.733 1 12 1s11 2.793 11 11.034S20.267 23 12 23ZM9.4 10.836c-.69251-.6971-1.0802-1.64041-1.078-2.623 0-1.037.419-1.968 1.079-2.623.33931-.34437.7436-.61802 1.1893-.80512.4458-.18709.9243-.28392 1.4077-.28488 1.016 0 1.938.423 2.598 1.09.6909.69817 1.0785 1.64075 1.0785 2.623 0 .98225-.3876 1.9248-1.0785 2.623-.34.3437-.7445.6169-1.1904.8039-.4458.1871-.9241.2843-1.4076.2861-.4833-.0019-.9615-.0992-1.4071-.2863-.4456-.187-.84999-.4601-1.1899-.8037H9.4Zm6.484 1.1 1.079 1.492c.063.074.052.17-.084.233-.911.761-1.969 1.248-3.069 1.513l2.284 4.061c.063.128-.01.265-.147.265h-2.231c-.0349-.0009-.0687-.0125-.0968-.0332-.0281-.0208-.0491-.0497-.0602-.0828l-1.592-3.597-1.592 3.597c-.0094.0341-.03.0641-.0584.0851-.0285.0211-.0632.0319-.0986.0309H7.987c-.126 0-.21-.148-.147-.265l2.283-4.061c-1.12304-.2691-2.17165-.7861-3.069-1.513-.03072-.03-.04964-.07-.05331-.1128-.00367-.0428.00815-.0854.03331-.1202l1.078-1.492c.03308-.0358.07847-.0578.12707-.0615.0486-.0037.0968.0111.13493.0415 1.027.877 2.273 1.449 3.624 1.449s2.608-.572 3.624-1.45c.0179-.0174.0392-.0308.0627-.0392.0235-.0084.0485-.0117.0733-.0096.0249.0021.049.0095.0707.0217.0217.0122.0406.029.0553.0491v-.001Zm-5.551-3.734c0 .466.188.889.492 1.196.304.307.723.497 1.184.497.46 0 .88-.19 1.183-.497.3155-.31771.4925-.74727.4925-1.195 0-.44773-.177-.87729-.4925-1.195-.1543-.15729-.3384-.28231-.5415-.36781-.2031-.08549-.4211-.12975-.6415-.13019-.461 0-.88.19-1.184.497-.293.307-.492.73-.492 1.195Z"
		clip-rule="evenodd" />
</svg>

<svg width="24" height="24" viewBox="0 0 24 24" fill="none" xmlns="http://www.w3.org/2000/svg">
<path fill-rule="evenodd" clip-rule="evenodd" d="M12 22C7.92 22 5.525 21.314 4.106 19.9C2.687 18.484 2 16.1 2 12.033C2 7.966 2.687 5.563 4.11 4.13C5.53 2.701 7.923 2 12 2C16.077 2 18.47 2.701 19.89 4.131C21.314 5.563 22 7.968 22 12.034C22 16.101 21.313 18.485 19.894 19.899C18.475 21.314 16.081 22 12 22ZM12 23C3.733 23 1 20.275 1 12.034C1 3.793 3.733 1 12 1C20.267 1 23 3.793 23 12.034C23 20.275 20.267 23 12 23ZM9.4 10.836C8.70749 10.1389 8.3198 9.19559 8.322 8.213C8.322 7.176 8.741 6.245 9.401 5.59C9.74031 5.24563 10.1446 4.97198 10.5903 4.78488C11.0361 4.59779 11.5146 4.50096 11.998 4.5C13.014 4.5 13.936 4.923 14.596 5.59C15.2869 6.28817 15.6745 7.23075 15.6745 8.213C15.6745 9.19525 15.2869 10.1378 14.596 10.836C14.256 11.1797 13.8515 11.4529 13.4056 11.6399C12.9598 11.827 12.4815 11.9242 11.998 11.926C11.5147 11.9241 11.0365 11.8268 10.5909 11.6397C10.1453 11.4527 9.74091 11.1796 9.401 10.836H9.4ZM15.884 11.936L16.963 13.428C17.026 13.502 17.015 13.598 16.879 13.661C15.968 14.422 14.91 14.909 13.81 15.174L16.094 19.235C16.157 19.363 16.084 19.5 15.947 19.5H13.716C13.6811 19.4991 13.6473 19.4875 13.6192 19.4668C13.5911 19.446 13.5701 19.4171 13.559 19.384L11.967 15.787L10.375 19.384C10.3656 19.4181 10.345 19.4481 10.3166 19.4691C10.2881 19.4902 10.2534 19.501 10.218 19.5H7.987C7.861 19.5 7.777 19.352 7.84 19.235L10.123 15.174C8.99996 14.9049 7.95135 14.3879 7.054 13.661C7.02328 13.631 7.00436 13.591 7.00069 13.5482C6.99702 13.5054 7.00884 13.4628 7.034 13.428L8.112 11.936C8.14508 11.9002 8.19047 11.8782 8.23907 11.8745C8.28767 11.8708 8.33587 11.8856 8.374 11.916C9.401 12.793 10.647 13.365 11.998 13.365C13.349 13.365 14.606 12.793 15.622 11.915C15.6399 11.8976 15.6612 11.8842 15.6847 11.8758C15.7082 11.8674 15.7332 11.8641 15.758 11.8662C15.7829 11.8683 15.807 11.8757 15.8287 11.8879C15.8504 11.9001 15.8693 11.9169 15.884 11.937V11.936ZM10.333 8.202C10.333 8.668 10.521 9.091 10.825 9.398C11.129 9.705 11.548 9.895 12.009 9.895C12.469 9.895 12.889 9.705 13.192 9.398C13.5075 9.08029 13.6845 8.65073 13.6845 8.203C13.6845 7.75527 13.5075 7.32571 13.192 7.008C13.0377 6.85071 12.8536 6.72569 12.6505 6.64019C12.4474 6.5547 12.2294 6.51044 12.009 6.51C11.548 6.51 11.129 6.7 10.825 7.007C10.532 7.314 10.333 7.737 10.333 8.202Z" fill="#9399A7"/>
</svg>
